X:1
T:The Cork Leg
M:6/8
L:1/8
K:F
 C| F3/2 F/2 F FFA| ccA F2 A| GGG G2 F| G2 F G2 G| A2 G A2 G| A2 G A2 G|\
 A2 G A3/2 A/2 G| A2 G A2 G| A2 G A2 G| A2 G A2 G| ABc F2 E| D2 d c2 E|\
 F3- F2||
